src/Pure-Dark/16/symbolic/places/folder-print-symbolic.svg

<svg width="16" height="16" version="1.1" xmlns="http://www.w3.org/2000/svg">
 <path d="m3 2.5c0-0.82843 0.67157-1.5 1.5-1.5h7c0.8284 0 1.5 0.67157 1.5 1.5v0.5h0.5c1.3807 0 2.5 1.1193 2.5 2.5v5c0 0.8284-0.6716 1.5-1.5 1.5h-1.5v1.5c0 0.8284-0.6716 1.5-1.5 1.5h-7c-0.82843 0-1.5-0.6716-1.5-1.5v-1.5h-1.5c-0.82843 0-1.5-0.6716-1.5-1.5v-5c0-1.3807 1.1193-2.5 2.5-2.5h0.5zm1 0.5h8v-0.5c0-0.27614-0.2239-0.5-0.5-0.5h-7c-0.27614 0-0.5 0.22386-0.5 0.5zm-1 8v-1.5c0-0.82843 0.67157-1.5 1.5-1.5h7c0.8284 0 1.5 0.67157 1.5 1.5v1.5h1.5c0.2761 0 0.5-0.22386 0.5-0.5v-5c0-0.82843-0.6716-1.5-1.5-1.5h-11c-0.82843 0-1.5 0.67157-1.5 1.5v5c0 0.27614 0.22386 0.5 0.5 0.5zm1.5-2c-0.27614 0-0.5 0.22386-0.5 0.5v4c0 0.2761 0.22386 0.5 0.5 0.5h7c0.2761 0 0.5-0.2239 0.5-0.5v-4c0-0.27614-0.2239-0.5-0.5-0.5z" fill="#f2f2f2"/>
</svg>

<?xml version="1.0" encoding="UTF-8" standalone="no"?>
<!-- Created with Inkscape (http://www.inkscape.org/) -->

<svg
   width="16"
   height="16"
   viewBox="0 0 16 16"
   version="1.1"
   id="svg1"
   inkscape:version="1.4.2 (ebf0e940d0, 2025-05-08)"
   sodipodi:docname="folder-print-symbolic.svg"
   xmlns:inkscape="http://www.inkscape.org/namespaces/inkscape"
   xmlns:sodipodi="http://sodipodi.sourceforge.net/DTD/sodipodi-0.dtd"
   xmlns="http://www.w3.org/2000/svg"
   xmlns:svg="http://www.w3.org/2000/svg">
  <sodipodi:namedview
     id="namedview1"
     pagecolor="#ffffff"
     bordercolor="#000000"
     borderopacity="0.25"
     inkscape:showpageshadow="2"
     inkscape:pageopacity="0.0"
     inkscape:pagecheckerboard="0"
     inkscape:deskcolor="#d1d1d1"
     inkscape:document-units="px"
     inkscape:zoom="49.6875"
     inkscape:cx="8"
     inkscape:cy="8"
     inkscape:window-width="1920"
     inkscape:window-height="1010"
     inkscape:window-x="0"
     inkscape:window-y="0"
     inkscape:window-maximized="1"
     inkscape:current-layer="svg1" />
  <defs
     id="defs1">
    <style
       id="current-color-scheme"
       type="text/css">
    .ColorScheme-Text { color:#f2f2f2; }
   </style>
  </defs>
  <path
     d="M 3,2.5 C 3,1.67157 3.67157,1 4.5,1 h 7 C 12.3284,1 13,1.67157 13,2.5 V 3 h 0.5 C 14.8807,3 16,4.1193 16,5.5 v 5 C 16,11.3284 15.3284,12 14.5,12 H 13 v 1.5 c 0,0.8284 -0.6716,1.5 -1.5,1.5 h -7 C 3.67157,15 3,14.3284 3,13.5 V 12 H 1.5 C 0.67157,12 0,11.3284 0,10.5 v -5 C 0,4.1193 1.1193,3 2.5,3 H 3 Z M 4,3 h 8 V 2.5 C 12,2.22386 11.7761,2 11.5,2 h -7 C 4.22386,2 4,2.22386 4,2.5 Z M 3,11 V 9.5 C 3,8.67157 3.67157,8 4.5,8 h 7 C 12.3284,8 13,8.67157 13,9.5 V 11 h 1.5 c 0.2761,0 0.5,-0.22386 0.5,-0.5 v -5 C 15,4.67157 14.3284,4 13.5,4 H 2.5 C 1.67157,4 1,4.67157 1,5.5 v 5 C 1,10.77614 1.22386,11 1.5,11 Z M 4.5,9 C 4.22386,9 4,9.22386 4,9.5 v 4 C 4,13.7761 4.22386,14 4.5,14 h 7 c 0.2761,0 0.5,-0.2239 0.5,-0.5 v -4 C 12,9.22386 11.7761,9 11.5,9 Z"
     style="fill:currentColor"
     class="ColorScheme-Text"
     id="path1" />
</svg>
